X: 35856
T: Samuel The Weaver
R: jig
M: 6/8
K: Amixolydian
|:a3 c2f|efe ecA|a3 c2e|eff f2e|
a3 c2f|efe ecA|c2B cAA|BGB f2e:|
|:c2e ece|faf ecA|c2e ecA|BGB f2e|
c2e ece|faf ecA|c2B cAA|BGB f2e:|

